X: 861
T: Youghal Harbor   #2
R: hornpipe
%S: s:2 b:9(5+4)
B: Francis O'Neill: "The Dance Music of Ireland" (1907) #861
Z: Frank Nordberg - http://www.musicaviva.com
F: http://www.musicaviva.com/abc/tunes/ireland/oneill-1001/0861/oneill-1001-0861-1.abc
N: Compacted via repeats and multiple endings [JC]
N: Compacted by using labels and play order [JC]
P: Play (A1A2)x2 + (BA2)x2
M: 2/4
L: 1/16
K: G
"^A"[|] (BA) | GFEF GABd | egfa gage | dcBA [1,3 G2(Bd) | cBAG Ec :|[2,4 BGEF | G2G2G2 :|
"^B"|: (dc) | Bdef g2(fg) | agfg edge | dcBA G2(Bd) | cBAG Ec"^->A2"y |]
